X:2087
T:Braw, Braw Lads o Galla Water
G:song from the Borders
M:4/4
L:1/8
K:AMix
% A major/mixolydian hexatonic
F2E>D D3F|A3B   A<FE>D|F2E2  E2F>A|B>Ad>c B2AA|
A2Bc  d3e|f>edB d3F   |F2E>F E2F>A|d3c    B2A2|]


